X:5694
T:Gan Ainm
R:reel
S:(Unknown fiddle)
H:
N:
D:Taped @ Milltown
Z:Adrian Scahill
M:4/4
L:1/8
K:D
FGEF D2EF|GEFD EDEG|FGEF D3g|1 fdec dBAG:|2 fdec dBAg||\
fddc dfaf|eAA2 cdeg|1fddc dfaf|eABc dcde:|2 fdfa gfed|cAce dBAG||
